X:188
T:Messze jártam házasodni
O: Görbepataka (1962)
Q:"Tempo guisto" 1/4=112
M:2/4
L:1/8
K:F
fgag | fdcB | Bc(c/B/)A | B2 B z | 
f<gag | (g/f/)e(d/c/)B | Bc c(B/A/) | G2 G z | 
FBcd | fdcB | fdcc | d2<g2 | 
fgag | fedc | GGBA | G2Gz | 

